X:1
T:Title
%%score { ( 1 4 ) | ( 2 3 ) }
L:1/8
M:3/4
K:D
V:1 treble nm="Grand Piano"
V:4 treble 
V:2 bass 
V:3 bass 
V:1
 z2 z2[Q:1/4=110] D2 | F2 F2 [EG]2 | [FA]2 [FA]2 [GB]c | [DBd]2 [DAc]2 [DGB]2 | [FA]4 BF | %5
 G2 G2 .[CA]2 | z2 z2 .[EA]2 | [Ec]2 [^Ge]2 [DEG]2 | [CEA]4 [A,EG]2 | [A,DF]2 [A,DF]2 .[B,EG]2 | %10
 [FA]2 [FA]2 Bc | d2 [Gc]2 [Ad]2 | [GB]4 [AB]2 | [^Ge]2 [Ge]2 Bc | [Fd]2 [Dc]2 [DB]2 | %15
 [DA]2 [B,G]2 [CE]2 |[M:2/4] D4 |[M:1/4] E>F |[M:3/4] z2 z2 [^DF]2 | [EG]4 z2 | z2 z2 [=F^G]2 | %21
 [FA]4 z2 | [B,GB]2 [B,DG]2 [B,GB]2 | [DFA]2 [A,DF]2 [F,A,D]2 | [A,DF]2 [^G,DE]2 [B,D^G]2 | %25
 [CA]4 z2 | [DF]2 [DF]2 [A,CE]2 |[M:2/4] [A,DF]4 |[M:1/4] [DF]>[EG] | %29
[M:3/4] [FA]2 [FA]2 [B,=F^G]2 | [FA]4 z2 | [B,GB]2 [Bd]2 [Ac]B |[M:7/8] [DFA]2 [DAd]3 [D=FB]2 | %33
[M:3/4] [DFA]3 [EG][K:bass] [G,CE]2 |[M:2/4] [F,D]4 |] %35
V:2
 z2 z2 [D,F,A,]2 | [D,A,D]2 [D,A,D]2 [D,A,]2 | [D,D]2 [D,D]2 z[K:treble] A | G,2[K:bass] G,2 G,2 | %4
 z2 A,2 [B,,A,]2 | [E,G,E]2 [E,B,D]2 z E | D,2 D,2 C,B,, | [E,A,]2 [E,B,]2 E,2 | A,,4 C,2 | %9
 D,2 D,2 z C | [D,D]2 [D,D]2 [D,A,]2 | [D,A,]2 [E,A,]2 [F,D]2 | [G,D]4 [F,^D]2 | %13
 [E,E]2 [E,B,]2 [A,G]2 | [D,A,]2 [G,,G,]2 [^G,,=F,]2 | [A,,F,]2 [A,,E,]2 [A,,G,]2 | %16
[M:2/4] [D,F,]4 |[M:1/4] C>D |[M:3/4] E2 E2 A,,>A,, | z B, A,,2[K:treble] D>E | %20
 F2 F2[K:bass] D,>D, | D,2 D,2 D,2 | G,2 G,2 z z/ C/ | D,2 D,2 D,>C, | B,,2 B,,2 E,2 | %25
 z2 G,2 F,>G, | A,2 A,2 A,,>A,, |[M:2/4] D,2 D,2 |[M:1/4] A,>A, |[M:3/4] D2 D2 D,>D, | %30
 D,2 D,2 D,2 | G,2 [G,B,]2[K:treble] z G |[M:7/8][K:bass] D,2 F,3 ^G,2 |[M:3/4] A,3 A, A,,2 | %34
[M:2/4] D,4 |] %35
V:3
 x6 | x6 | z2 z2 [D,D]2[K:treble] | x2[K:bass] x4 | D,4 z2 | z2 z2 [A,,G,]2 | x6 | x6 | x6 | %9
 z2 z2 D,2 | x6 | x6 | x6 | x6 | x6 | x6 |[M:2/4] x4 |[M:1/4] x2 |[M:3/4] x6 | %19
 A,,2 z2[K:treble] z2 | x4[K:bass] x2 | x6 | z2 z2 G,2 | x6 | x6 | A,,4 z2 | x6 |[M:2/4] x4 | %28
[M:1/4] x2 |[M:3/4] x6 | x6 | z2 z2[K:treble] [G,D]2 |[M:7/8][K:bass] x7 |[M:3/4] x6 |[M:2/4] x4 |] %35
V:4
 x6 | x6 | x6 | x6 | D2 z2 ^D2 | x6 | [F,DF]2 [A,DF]2 A,-[A,Fd] | x6 | x6 | x6 | z2 z2 F2 | x6 | %12
 x6 | x6 | x6 | x6 |[M:2/4] x4 |[M:1/4] x2 |[M:3/4] G2 G2 =C>C | .C2 A,2 F>G | A2 A2 B,>B, | %21
 A,2 B,2 [=CFA]2 | x6 | x6 | x6 | A,2 z2 D>[DE] | x6 |[M:2/4] x4 |[M:1/4] x2 |[M:3/4] x6 | %30
 A,2 B,2 [=CFA]2 | x6 |[M:7/8] x7 |[M:3/4] x4[K:bass] x2 |[M:2/4] x4 |] %35

